Obsidian-SemiLight/actions/24s/games-hint.svg

<svg viewBox="0 0 24 24" xmlns="http://www.w3.org/2000/svg"><path d="m12 4v.0019531c-2.99956 0-4.5 1.9861875-4.5 4.3984375 0 2.5993664 2.914062 7.5996094 2.914062 7.5996094l3.171876-.003906s2.914062-4.996343 2.914062-7.5957034c0-2.412232-1.49956-4.4003906-4.5-4.4003906zm0 1.0019531c2.33368 0 3.5 1.6557554 3.5 3.6660157 0 2.1662002-2.265625 6.3300782-2.265625 6.3300782l-2.46875.003906s-2.265625-4.167784-2.265625-6.3339842c0-2.01029 1.16702-3.6640624 3.5-3.6640626zm-2 11.9980469v1.5c0 .831.669 1.5 1.5 1.5h1c.831 0 1.5-.669 1.5-1.5v-1.5h-1.5-1z" fill="#4d4d4d"/></svg>

<svg xmlns="http://www.w3.org/2000/svg" viewBox="0 0 24 24">
  <defs id="defs3051">
    <style type="text/css" id="current-color-scheme">
      .ColorScheme-Text {
        color:#4d4d4d;
      }
      </style>
  </defs>
 <path style="fill:currentColor;fill-opacity:1;stroke:none" 
     d="M 12 4 L 12 4.0019531 C 9.00044 4.0019531 7.5 5.9881406 7.5 8.4003906 C 7.5 10.999757 10.414062 16 10.414062 16 L 13.585938 15.996094 C 13.585938 15.996094 16.5 10.999751 16.5 8.4003906 C 16.5 5.9881586 15.00044 4 12 4 z M 12 5.0019531 C 14.33368 5.0019531 15.5 6.6577085 15.5 8.6679688 C 15.5 10.834169 13.234375 14.998047 13.234375 14.998047 L 10.765625 15.001953 C 10.765625 15.001953 8.5 10.834169 8.5 8.6679688 C 8.5 6.6576788 9.66702 5.0039064 12 5.0039062 L 12 5.0019531 z M 10 17 L 10 18.5 C 10 19.331 10.669 20 11.5 20 L 12.5 20 C 13.331 20 14 19.331 14 18.5 L 14 17 L 12.5 17 L 11.5 17 L 10 17 z "
     class="ColorScheme-Text"
     />
</svg>
